storage/app/icons/phosphoricons/light/mouse-light.svg

<svg xmlns="http://www.w3.org/2000/svg" fill="currentColor" viewBox="0 0 256 256"><path d="M144 18h-32a62.07 62.07 0 0 0-62 62v96a62.07 62.07 0 0 0 62 62h32a62.07 62.07 0 0 0 62-62V80a62.07 62.07 0 0 0-62-62m50 62v26h-60V30h10a50.06 50.06 0 0 1 50 50m-82-50h10v76H62V80a50.06 50.06 0 0 1 50-50m32 196h-32a50.06 50.06 0 0 1-50-50v-58h132v58a50.06 50.06 0 0 1-50 50"/></svg>

<svg xmlns="http://www.w3.org/2000/svg" viewBox="0 0 256 256" fill="currentColor"><path d="M144,18H112A62.07,62.07,0,0,0,50,80v96a62.07,62.07,0,0,0,62,62h32a62.07,62.07,0,0,0,62-62V80A62.07,62.07,0,0,0,144,18Zm50,62v26H134V30h10A50.06,50.06,0,0,1,194,80ZM112,30h10v76H62V80A50.06,50.06,0,0,1,112,30Zm32,196H112a50.06,50.06,0,0,1-50-50V118H194v58A50.06,50.06,0,0,1,144,226Z"/></svg>
